storage/app/icons/phosphoricons/fill/user-focus-fill.svg

<svg xmlns="http://www.w3.org/2000/svg" fill="currentColor" viewBox="0 0 256 256"><path d="M224 40v36a8 8 0 0 1-16 0V48h-28a8 8 0 0 1 0-16h36a8 8 0 0 1 8 8m-8 132a8 8 0 0 0-8 8v28h-28a8 8 0 0 0 0 16h36a8 8 0 0 0 8-8v-36a8 8 0 0 0-8-8M76 208H48v-28a8 8 0 0 0-16 0v36a8 8 0 0 0 8 8h36a8 8 0 0 0 0-16M40 84a8 8 0 0 0 8-8V48h28a8 8 0 0 0 0-16H40a8 8 0 0 0-8 8v36a8 8 0 0 0 8 8m61 57.51a67.94 67.94 0 0 0-27.4 21.68A8 8 0 0 0 80 176h96a8 8 0 0 0 6.4-12.81 67.94 67.94 0 0 0-27.4-21.68 40 40 0 1 0-53.94 0Z"/></svg>

<svg xmlns="http://www.w3.org/2000/svg" viewBox="0 0 256 256" fill="currentColor"><path d="M224,40V76a8,8,0,0,1-16,0V48H180a8,8,0,0,1,0-16h36A8,8,0,0,1,224,40Zm-8,132a8,8,0,0,0-8,8v28H180a8,8,0,0,0,0,16h36a8,8,0,0,0,8-8V180A8,8,0,0,0,216,172ZM76,208H48V180a8,8,0,0,0-16,0v36a8,8,0,0,0,8,8H76a8,8,0,0,0,0-16ZM40,84a8,8,0,0,0,8-8V48H76a8,8,0,0,0,0-16H40a8,8,0,0,0-8,8V76A8,8,0,0,0,40,84Zm61,57.51A67.94,67.94,0,0,0,73.6,163.19,8,8,0,0,0,80,176h96a8,8,0,0,0,6.4-12.81A67.94,67.94,0,0,0,155,141.51a40,40,0,1,0-53.94,0Z"/></svg>
